X: 3858
T: Black Pat
R: reel
M: 4/4
K: Gmajor
|:~G3d dedB|AcBA GEED|GFGd edBA|bdgb a2ga|
bggg aged|B2dB AGED|GFGd dedB|AcBA GDEF:|
FGGA GEDE|~G3A Be~e2|cdBG dGBG|AcBA GEED|
EGGA GEDE|~G3B dega|bg~g2 ageg|dgba g3e|
d3B BAGE|DEGA Be~e2|cdBG dGBG|AcBA GEED|
EG2A GEDE|~G3B dega|bg~g2 ageg|dgba g3a||
|:ab2g egdg|gedB G2ga|abgd b2gd|eaaa a2ga|
bg~g2 aged|gedB dega|bgag gedB|1 AGAB Gdga:|2 AGAB GDEF||

